X:1
T:OLD FOLKS AT HOME.
T:OLD FOLKS AT HOME.
T:GRAND FANTASIE.
T:J. W. Boone.
T:THEME.
T:Variation I.
T:Variation II.
T:Variation III.
T:FINALE.
T:Copyright, Kunkel Bros, 1894.
T:Copyright, Kunkel Bros, 1894.
T:Copyright, Kunkel Bros, 1894.
T:Copyright, Kunkel Bros, 1894.
T:Copyright, Kunkel Bros, 1894.
T:Copyright, Kunkel Bros, 1894.
T:Copyright, Kunkel Bros, 1894.
T:Copyright, Kunkel Bros, 1894.
T:Copyright, Kunkel Bros, 1894.
T:Copyright, Kunkel Bros, 1894.
T:Copyright, Kunkel Bros, 1894.
T:Copyright, Kunkel Bros, 1894.
C:J. W. Boone.
Z:Copyright, Kunkel Bros, 1894.
%%score { ( 1 4 ) | ( 2 3 ) }
L:1/8
Q:1/4=88
M:4/4
K:Ab
V:1 treble nm="Piano" snm="Pno."
V:4 treble 
V:2 bass 
V:3 bass 
V:1
"^Moderato."!f!"^To insure a refined and scholary rendition of the piece, the artistic use of the pedal as indicated is imperative." z8 | %1
 z2[I:staff +1] (13:8:13A,/4[I:staff -1]C/4E/4A/4B/4c/4e/4a/4b/4c'/4!8va(!e'/4a'/4b'/4 c''!8va)! z z2 | %2
!f! z8 | %3
 z2[I:staff +1] (13:8:13F,/4A,/4[I:staff -1]C/4F/4G/4A/4c/4f/4g/4a/4c'/4!8va(!f'/4g'/4 a'!8va)! z z2 | %4
[K:Ab]!f! z2[I:staff +1] (13:8:13D,/4[I:staff -1]F,/4A,/4D/4E/4F/4A/4d/4e/4f/4a/4d'/4e'/4 f' z z2 | %5
 z2[I:staff +1] (16:8:16A,/4[I:staff -1]_C/4D/4F/4A/4_c/4d/4f/4a/4_c'/4!8va(!d'/4f'/4a'/4_c''/4d''/4f''/4 a''!8va)! z[K:bass] [F,A,=B,]2 | %6
 !>!=C4 !>!D2 (3:2:2!>!_E2 !>!D | !>!C4 !>!D2 (3:2:2!>!_E2 !>!D | %8
 !>!C2- (3C=B,C!<(! (3DCD (3=D^CD!<)! |!f! G,/!>(!G,/B,/D/ E/D/B,/G,/!>)! z4 | %10
[K:Ab][K:treble]!p! f'/g/b/d'/ z2 f'/g/b/d'/ e'/d'/b/g/ | %11
 (f'/4d'/4b/4g/4[I:staff +1]f'/4d'/4b/4g/4)[I:staff -1] (e'/4d'/4b/4g/4[I:staff +1]e'/4d'/4b/4g/4)[I:staff -1] (f'/4d'/4b/4g/4[I:staff +1]f/4d/4B/4G/4)[I:staff -1] (e'/4d'/4b/4g/4[I:staff +1]e/4d/4B/4G/4) | %12
"^cresc."[I:staff -1] (f/4d/4B/4G/4[I:staff +1]F/4D/4B,/4G,/4)[I:staff -1] (e/4d/4B/4G/4[I:staff +1]E/4D/4B,/4G,/4)[I:staff -1] (F/4D/4B,/4G,/4[I:staff +1]F,/4D,/4B,,/4G,,/4)[I:staff -1] (E/4D/4B,/4G,/4[I:staff +1]E,/4D,/4B,,/4)G,,/4 | %13
!f![I:staff -1] z/!<(! (G/B/d/ e/g/b/!<)!d'/ f'/e'/d'/b/ g/e/d/B/ | %14
 G/B/d/e/ g/b/d'/e'/ f'/e'/!>(!d'/b/ g/e/d/B/!>)! | GB!>(!df ce!>)!Bd) | %16
!p![Q:1/4=88]"^Moderato." ([cec']4 [Bdb][Aca][cec'][Bdb] | %17
 [Aca]2 [ac'a']2!<(! [fd'f'] [af'a']3)!<)! | ([ec'e']4 [cac']>[Bb] [Afa]>[Bb]) | %19
 [Bdeb]!p!(f'/4e'/4d'/4b/4 g/4e/4d/4B/4g/4e/4d/4B/4 G/B/d/f/ c/e/"_r.h."B/d/) | %20
 ([cec']4 [Bdb][Aca][cec'][Bdb] | [Aca]2 [ac'a']2 [fd'f'] [af'a']3) | %22
 ([ec'e']2 [cac'][Aca] [Bdeb]2 [Bdeb]2 | %23
 [Acea])(c/4e/4a/4b/4!8va(! c'/4e'/4a'/4b'/4c''/4b'/4a'/4e'/4!8va)! c'/4b/4a/4e/4c/4B/4A/4E/4 C/4E/4A/4B/4c/4e/4a/4b/4 | %24
 ([cec']4) [Bdb][Aca][cec'][Bdb] | [Aca]2 [ac'a']2 [fd'f'] [af'a']3) | %26
 ([ec'e']4 [cac']>[Bb] [Afa]>[Bb] | %27
 [Bdeb])!p!(f'/4e'/4d'/4b/4 g/4e/4d/4B/4g/4e/4d/4B/4 G/B/d/f/ c/e/B/d/) | %28
"^a tempo." ([cec']4 [Bdb][Aca][cac'][B_gb] | [Afa]2 [af'a']2 [f=bf'] [aba']2) ([fbf'] | %30
 [ec'e']2 [cac'][Aca] [_Bde_b]2 [Bdeb]2 | %31
 [Acea]3/2)(c/4e/4 a/4b/4c'/4e'/4!8va(!a'/4b'/4c''/4b'/4 a')!8va)! [cc'][ee'][aa'] | %32
!8va(! ([gd'e'g']3 [ad'e'a'] [bd'e'b']2 [egd'e']2!8va)! | [ec'e']3 [fd'f'] [ec'e'] [ac'a']3) | %34
 ([af'a']2 [fd'f']2 [dfd']2 [fd'f']2 | %35
 [ec'e'])!p!(f'/4e'/4c'/4a/4 f/4e/4c/4A/4f/4e/4c/4A/4 G/B/d/f/ c/e/B/d/) | %36
"^a tempo." ([cec']4 [Bdb][Aca][cac'][B_gb] | [Afa]2 [af'a']2 [f=bf'] [aba']2) ([fbf'] | %38
 [ec'e'][cac'] [Ada][_B_b] [cegc']2 [Bdeb]2) | %39
 [Acea]3/2!p!(c/4e/4 a/4b/4c'/4e'/4!8va(!a'/4b'/4c''/4b'/4 a'2)!8va)! !fermata!z |!p! e | %41
x/4a/4e/4c/4c'/4a/4e/4c/4 c'/4a/4e/4c/4c'/4a/4e/4c/4 b/4e/4d/4B/4a/4e/4d/4A/4 c'/4g/4e/4c/4b/4e/4d/4B/4 | %42
 !>!a/4A/4c/4e/4a/4c'/4e'/4a'/4!8va(! e'/4a'/4c'/4a'/4f/4a'/4e'/4a'/4 f/4f'/4a/4d'/4f'/4a'/4d''/4f''/4 a''/4f''/4d''/4a'/4f'/4d'/4a/4f/4!8va)! | %43
 e'/4f'/4e'/4c'/4a/4e/4c/4A/4 E/4C/4E/4A/4c/4e/4a/4e/4 !>!c'/4c/4f/4c/4b/4c/4f/4c/4 !>!a/4=d/4f/4d/4b/4d/4f/4d/4 | %44
 !>![B_deb]!8va(!(f''/4e''/4d''/4b'/4 g'/4e'/4d'/4b/4!8va)!g/4e/4d/4B/4 G/B/d/f/ c/e/B/e/) | %45
{/c}x/4a/4e/4c/4c'/4a/4e/4c/4 c'/4a/4e/4c/4c'/4a/4e/4c/4 b/4e/4d/4B/4a/4e/4d/4A/4 c'/4g/4e/4c/4b/4e/4d/4B/4 | %46
 !>!a/4A/4c/4e/4a/4c'/4e'/4a'/4!8va(! e'/4a'/4c'/4a'/4f/4a'/4e'/4a'/4 f/4f'/4a/4d'/4f'/4a'/4d''/4f''/4 a''/4f''/4d''/4a'/4f'/4d'/4a/4f/4!8va)! | %47
 !>!e'/4f'/4e'/4c'/4a/4e/4c/4e/4 !>!a/4d/4A/4d/4!>!b/4d/4B/4d/4 !>![cc']/!8va(!e'/4e''/4c'/4c''/4g/4g'/4!8va)! e/4e'/4c/4c'/4B/4b/4E/4e/4 | %48
 [Aa]!p!(c/4e/4a/4b/4!8va(! c'/4e'/4a'/4b'/4c''/4b'/4a'/4e'/4!8va)! c'/4b/4a/4e/4c/4B/4A/4E/4 C/4E/4A/4B/4c/4e/4a/4b/4) | %49
x/4a/4e/4c/4c'/4a/4e/4c/4 c'/4a/4e/4c/4c'/4a/4e/4c/4 b/4e/4d/4B/4a/4e/4d/4A/4 c'/4g/4e/4c/4b/4e/4d/4B/4 | %50
 !>!a/4A/4c/4e/4a/4c'/4e'/4a'/4!8va(! e'/4a'/4c'/4a'/4f/4a'/4e'/4a'/4 f/4f'/4a/4d'/4f'/4a'/4d''/4f''/4 a''/4f''/4d''/4a'/4f'/4d'/4a/4f/4!8va)! | %51
 !>!e'/4f'/4e'/4c'/4a/4e/4c/4A/4 E/4C/4E/4A/4c/4e/4a/4e/4 c'/4c/4f/4c/4b/4c/4f/4c/4 a/4=d/4f/4d/4b/4d/4f/4d/4 | %52
 !>![B_deb]!8va(!(f''/4e''/4d''/4b'/4 g'/4e'/4d'/4b/4!8va)!g/4e/4d/4B/4"_rit." G/B/d/f/ c/e/B/e/) | %53
{/c}x/4a/4e/4c/4c'/4a/4e/4c/4 c'/4a/4e/4c/4c'/4a/4e/4c/4 b/4e/4d/4B/4a/4e/4d/4A/4 c'/4g/4e/4c/4b/4e/4d/4B/4 | %54
 !>!a/4A/4d/4f/4a/4a'/4d'/4a'/4 f'/4a'/4d'/4a'/4a/4a'/4d'/4a'/4 f/4a/4=b/4=d'/4!8va(!f'/4a'/4=b'/4=d''/4 a''/4f''/4d''/4b'/4!8va)!a'/4f'/4d'/4b/4 | %55
 e'/4f'/4e'/4c'/4a/4e/4c/4e/4 !>!a/4d/4A/4d/4!>!b/4d/4B/4d/4 !>![cc']/!8va(!e'/4e''/4c'/4c''/4g/4g'/4!8va)! e/4e'/4c/4c'/4B/4b/4E/4e/4 | %56
 [Aa]/(C/4E/4A/4B/4c/4e/4 (6:4:6a/4b/4c'/4!8va(!e'/4a'/4b'/4(6:4:6c''/4b'/4a'/4e'/4c'/4b/4 a)!8va)![I:staff +1] C/4[I:staff -1]c/4c'/4c/4[I:staff +1] E/4[I:staff -1]e/4e'/4e/4[I:staff +1] A/4[I:staff -1]a/4a'/4a/4 | %57
!f!!8va(! !>!g'/4e'/4d'/4g/4g'/4e'/4d'/4g/4 g'/4e'/4d'/4g/4a'/4e'/4d'/4a/4 b'/4e'/4d'/4b/4b'/4e'/4d'/4b/4 !>!e'/4d'/4g/4e/4e'/4d'/4g/4e/4 | %58
 !>!e'/4c'/4a/4e/4e'/4c'/4a/4e/4 e'/4c'/4a/4e/4!>!f'/4c'/4a/4f/4 !>!e'/4c'/4a/4e/4e'/4c'/4a/4e/4 !>!a'/4e'/4c'/4a/4a'/4e'/4c'/4a/4 | %59
 !>!a'/4f'/4d'/4a/4a'/4f'/4d'/4a/4 !>!f'/4d'/4a/4f/4f'/4d'/4a/4f/4 !>!d'/4a/4f/4d/4d'/4a/4f/4d/4 !>!f'/4d'/4a/4f/4f'/4d'/4a/4f/4 | %60
 !arpeggio!!>![eac'e']f''/4e''/4c''/4a'/4 f'/4e'/4c'/4a/4!8va)!f/4e/4c/4A/4 G/B/d/f/ c/f/B/d/ | %61
{/c}x/4a/4e/4c/4c'/4a/4e/4c/4 c'/4a/4e/4c/4c'/4a/4e/4c/4 b/4e/4d/4B/4a/4e/4d/4A/4 c'/4g/4e/4c/4b/4e/4d/4B/4 | %62
 !>!a/4A/4c/4e/4a/4a'/4d'/4a'/4 f'/4a'/4d'/4a'/4f/4a'/4d'/4a'/4 f/4a/4=b/4=d'/4!8va(!f'/4a'/4=b'/4=d''/4 a''/4f''/4d''/4b'/4!8va)!a'/4f'/4d'/4b/4 | %63
 !>!e'/4f'/4e'/4c'/4a/4e/4c/4e/4 !>!a/4d/4A/4d/4!>!b/4d/4B/4d/4 !>![cc']/!8va(!e'/4e''/4c'/4c''/4g/4g'/4!8va)! e/4e'/4c/4c'/4B/4b/4E/4e/4 | %64
 [Aa]/(d/4e/4!8va(!a/4b/4c'/4e'/4 a'/8b'/8c''/8b'/8a'/8e'/8!8va)!c'/8b/8 a/8e/8c/8B/8A/8E/8C/8B,/8!f! !fermata!A,) || %65
!p![Q:1/4=60]"^Andante" c cc | %66
"^con expressione." [Aca]/[Aca]/[Aca]/[Aca]/ [Aca]/[Aca]/[Aca]/[Aca]/ [Gcg]/[Gcg]/[Fcf]/[Fcf]/ [Aca]/[Aca]/[Gcg]/[Gcg]/ | %67
 [FAf]/[FAf]/[FAf]/[FAf]/ [fc'f']/[fc'f']/[fc'f']/[fc'f']/ [dbd']/[dbd']/[ebe']/[ebe']/ [fbf']/[fbf']/[dbd']/[dbd']/ | %68
 [cac']/[cac']/[cac']/[cac']/ [cac']/[cac']/[cac']/[cac']/ [Aca]/[Aca]/[Gcg]/[Gcg]/ [Fcf]/[Fcf]/[Gcg]/[Gcg]/ | %69
 [Gcg]/[Gcg]/[Gcg]/[Gcg]/ [Gcg]/[Gcg]/[Gcg]/[Gcg]/ [Gcg]/[Gcg]/[=Ec=e]/[Ece]/ [Fcf]/[Fcf]/[Gcg]/[Gcg]/ | %70
 [Aca]/[Aca]/[Aca]/[Aca]/ [Aca]/[Aca]/[Aca]/[Aca]/ [Gcg]/[Gcg]/[Fcf]/[Fcf]/ [Aca]/[Aca]/[Gcg]/[Gcg]/ | %71
 [FAf]/[FAf]/[FAf]/[FAf]/ [fc'f']/[fc'f']/[fc'f']/[fc'f']/ [dbd']/[dbd']/[ebe']/[ebe']/ [fbf']/[fbf']/[dbd']/[dbd']/ | %72
 [cac']/[cac']/[Afa]/[Afa]/ [FAf]/[FAf]/[GBg]/[GBg]/ [Aca]/[Aca]/[Aca]/[Bdb]/ [GBg]/[GBg]/[GBg]/[Aca]/ | %73
 [FAf]/[FAf]/[FAf]/[FAf]/ [FAf]/[FAf]/[Gg]/[Gg]/ [FAf]/!<(![Gg]/[Aa]/[Bb]/ [cc']/[=d=d']/[=e=e']/[ff']/!<)! | %74
!f! [=eb=e']/[ebe']/[ebe']/[ebe']/ [ebe']/[ebe']/[fbf']/[fbf']/ [gbg']/[gbg']/[gbg']/[gbg']/ [aa']/[gg']/[=e=e']/[dd']/ | %75
 [cac']/[cac']/[cac']/[cac']/ [cac']/[cac']/[dbd']/[dbd']/ [cac']/[cac']/[cac']/[cac']/ [fc'f']/[fc'f']/[fc'f']/[fc'f']/ | %76
 [fd'f']/[fd'f']/[fd'f']/[fd'f']/ [dbd']/[dbd']/[dbd']/[dbd']/!<(! [Bfb]/[Bfb]/[dbd']/[dbd']/!<)!!>(! [ebe']/[ebe']/[dbd']/[dbd']/!>)! | %77
 [cac']/[cac']/[cac']/[cac']/ [cbc']/[cbc']/[cac']/[cac']/ [cgc']/[cgc']/[=Ec=e]/[Ece]/!<(! [Fcf]/[Fcf]/[Gcg]/[Gcg]/!<)! | %78
 [Aca]/[Aca]/[Aca]/[Aca]/ [Aca]/[Aca]/[Aca]/[Aca]/ [Gcg]/[Gcg]/[Fcf]/[Fcf]/ [Aca]/[Aca]/[Gcg]/[Gcg]/ | %79
 [Fdf]/[Fdf]/[Fdf]/[Fdf]/ [fd'f']/[fd'f']/[fd'f']/[fd'f']/ [dbd']/[dbd']/[ebe']/[ebe']/ [fbf']/[fbf']/[dbd']/[dbd']/ | %80
 [cac']/[cac']/[Aca]/[Aca]/ [FAf]/[FAf]/[GBg]/[GBg]/ [Aca]/[Aca]/[Aca]/[Bdb]/ [GBg]/[GBg]/[GBg]/[Aca]/ | %81
 [FAf]/[FAf]/[FAf]/[FAf]/!>(! [FAf]/[FAf]/[FAf]/[_F_f]/ [EBde]4!>)! |!p!"^Cadenza." x8 | %83
!f!!8va(! (f''/4d''/4b'/4g'/4!8va)![I:staff +1]f'/4d'/4b/4g/4)!8va(![I:staff -1] (e''/4d''/4b'/4g'/4!8va)![I:staff +1]e'/4d'/4b/4g/4)[I:staff -1] (f'/4d'/4b/4g/4[I:staff +1]f/4d/4B/4G/4)[I:staff -1] (e'/4d'/4b/4g/4[I:staff +1]e/4d/4B/4G/4) | %84
"^cresc."[I:staff -1] (f/4d/4B/4G/4[I:staff +1]F/4D/4B,/4G,/4)[I:staff -1] (e/4d/4B/4G/4[I:staff +1]E/4D/4B,/4G,/4)[I:staff -1] (F/4D/4B,/4G,/4[I:staff +1]F,/4D,/4B,,/4G,,/4)[I:staff -1] (E/4D/4B,/4G,/4[I:staff +1]E,/4D,/4B,,/4)G,,/4 | %85
!f![I:staff -1] z/!<(! (G/B/d/ e/g/b/d'/!<)!!>(! f'/e'/d'/b/ g/e/d/B/!>)! | %86
!p! G/!<(!B/d/e/ g/b/d'/e'/!<)!!>(! f'/e'/d'/b/ g/e/d/B/!>)! |!<(! GBdf!<)!!>(! ceBd)!>)! |: %88
[Q:1/4=100]"^Allegretto.." !>![cc']!8va(!(c''/4b'/4a'/4e'/4 c'/4b/4a/4e/4c/)!8va)!z/4(!>![Bb]/4 !>![Aa])!8va(!(c''/4b'/4a'/4e'/4 c'/4b/4a/4e/4c/)!8va)!z/4(!>![Bb]/4 | %89
 !>![Aa])!8va(!(f''/4e''/4d''/4c''/4 f'/4e'/4d'/4a/4f/)z/4(!>![aa']/4 !>![ff']/<!>![aa']/)(f''/4e''/4d''/4c''/4 f'/4e'/4d'/4a/4f/)z/4[ff']/4!8va)! | %90
!8va(! !>![ee'](c''/4b'/4a'/4e'/4 c'/4b/4a/4e/4c/)!8va)!z/4(!>![Bb]/4 !>![Aa])!8va(!(c''/4b'/4a'/4f'/4 =d'/4b/4a/4f/4=d/)!8va)!z/4(!>![cc']/4 | %91
 !>![Bb])!8va(!(f''/4e''/4d''/4b'/4 g'/4e'/4=d'/4b/4!8va)!g/4e/4=d/4B/4 G/B/_d/f/ c/f/B/d/) | %92
"^a tempo." !>![cc']!8va(!(c''/4b'/4a'/4e'/4 c'/4b/4a/4e/4c/)!8va)!z/4(!>![Bb]/4 !>![Aa])!8va(!(c''/4b'/4a'/4e'/4 c'/4b/4a/4e/4c/)!8va)!z/4(!>![Bb]/4 | %93
 !>![Aa])!8va(!(f''/4e''/4d''/4c''/4 f'/4e'/4d'/4a/4f/)z/4(!>![aa']/4 !>![ff']/<!>![aa']/)(f''/4e''/4d''/4c''/4 f'/4e'/4d'/4a/4f/)!8va)!z/4(!>![ff']/4 | %94
 !>![ee'])!8va(!(c''/4b'/4a'/4e'/4 c'/4b/4a/4e/4c/)!8va)!z/4(!>![Aa]/4 !>![cc'])!8va(!(c''/4e''/4c''/4g'/4 e'/4c'/4g/4e/4c/)!8va)!z/4(!>![Bb]/4 |1 %95
 !>![Aa])!<(!(c/4e/4a/4b/4!8va(! c'/4e'/4a'/4b'/4!<)!!>(!c''/4b'/4a'/4e'/4!8va)! c'/4b/4a/4e/4!>)!c/4B/4A/4E/4 C/4E/4A/4B/4c/4e/4a/4b/4) :|2 %96
 !>![Aa]3/2(c/4e/4!8va(! (6:4:6a/4b/4c'/4e'/4a'/4b'/4 (6:4:6c''/4b'/4a'/4e'/4c'/4b/4 a)!8va)![I:staff +1] C/4[I:staff -1]c/4c'/4c/4[I:staff +1] E/4[I:staff -1]e/4e'/4e/4[I:staff +1] A/4[I:staff -1]a/4a'/4a/4 || %97
!f!!8va(! [gd'e'g']g''/4e''/4d''/4b'/4 g'/4e'/4d'/4b/4g/z/4(!>![aa']/4 !>![bd'e'b'])g''/4e''/4d''/4b'/4 g'/4e'/4d'/4b/4g/z/4(!>![ff']/4 | %98
 !>![ee'])c''/4b'/4a'/4e'/4 c'/4b/4a/4e/4c/z/4(!>![ff']/4 !>![ee']/<!>![aa']/) c''/4b'/4a'/4e'/4 c'/4b/4a/4e/4c/z/4(!>![bb']/4 | %99
 !>![aa'])(f''/4e''/4d''/4a'/4 f'/4e'/4d'/4a/4f/)z/4(!>![ff']/4 !>![dd'])(f''/4e''/4d''/4a'/4 f'/4e'/4d'/4a/4f/)z/4(!>![ff']/4 | %100
 !>![ee'])(f''/4e''/4c''/4a'/4 f'/4e'/4c'/4a/4!8va)!f/4e/4c/4A/4!<(! G/B/d/f/!<)!!>(! c/e/B/d/)!>)! | %101
"^a tempo."!f! !>![cc']!8va(!(c''/4b'/4a'/4e'/4 c'/4b/4a/4e/4c/)!8va)!z/4(!>![Bb]/4 !>![Aa])!8va(!(c''/4b'/4a'/4e'/4 c'/4b/4a/4e/4c/)!8va)!z/4(!>![Bb]/4 | %102
 !>![Aa])!8va(!(f''/4e''/4d''/4c''/4 f'/4e'/4d'/4a/4f/)!8va)!z/4(!>![Aa]/4 !>![Ff]/<!>![Aa]/)!8va(!(f''/4e''/4d''/4c''/4 f'/4e'/4d'/4a/4f/)!8va)!z/4(!>![ff']/4 | %103
 !>![ee'])!8va(!(c''/4b'/4a'/4e'/4 c'/4b/4a/4e/4c/)!8va)!z/4[Aa]/4 [cc']!8va(!(c''/4e''/4c''/4g'/4 e'/4c'/4g/4e/4c/)!8va)!z/4(!>![Bb]/4 | %104
 !>![Aa])!8va(!(6:4:6(c''/4b'/4a'/4e'/4c'/4b/4!8va)!!<(! (11:8:11a/4e/4c/4B/4A/4E/4[I:staff +1]C/4B,/4A,/4E,/4C,/4)!<)![I:staff -1] z4 || %105
!f![Q:1/4=100]"^Allegro" [cc']/!<(![ee']/[=d=d']/[ee']/!<)!!>(! [ff']/[ee']/[cc']/[ee']/!>)!!>(! [Bb][Aa]!>)! !>![cc']/[_d_d']/[cc']/[Bb]/ | %106
!<(! [Aa]/[aa']/[gg']/[aa']/!<)!!>(! [bb']/[aa']/[gg']/[aa']/!>)!!8va(! [ff']/[a'a'']/[g'g'']/[a'a'']/ [b'b'']/[a'a'']/[g'g'']/[f'f'']/!8va)! | %107
!8va(! [e'e'']/[=d'=d'']/[_d'_d'']/[c'c'']/ [bb']/[aa']/[gg']/[ff']/!8va)! [ee']/[dd']/[cc']/[Bb]/ [Aa]/[Bb]/[cc']/[dd']/ | %108
 [Bb]/[bb']/[aa']/[gg']/ [ff']/[ee']/[=d=d']/[ee']/!8va(! [e'e'']/[_d'd'']/[bb']/[gg']/ [ee']/[d=d']/[_d_d']/[Bb]/!8va)! | %109
 [cc']/!<(![ee']/[=d=d']/[ee']/!<)!!>(! [ff']/[ee']/[cc']/[ee']/!>)!!>(! [Bb][Aa]!>)! [cc']/[_d_d']/[cc']/[Bb]/ | %110
!<(! [Aa]/[aa']/[gg']/[aa']/!<)!!>(! [bb']/[aa']/[gg']/[aa']/!>)!!8va(! [ff']/[a'a'']/[g'g'']/[a'a'']/ [b'b'']/[a'a'']/[g'g'']/[f'f'']/!8va)! | %111
!8va(! [e'e'']/[=d'=d'']/[_d'_d'']/[c'c'']/ [bb']/[aa']/[gg']/[ff']/ [ee']/[=e=e']/[gg']/[ff']/ [_e_e']/[_d_d']/[cc']/[Bb]/ | %112
 [Aa]/[cc']/!<(![ee']/[cc']/ [ee']/[aa']/[c'c'']/[e'e'']/ [a'a'']!8va)!!<)!!f!!<(! [cc'][ee'][aa']!<)! | %113
!<(! [gg']/[^f^f']/[gg']/[aa']/!<)!!>(! [bb']/[=a=a']/[bb']/[_a_a']/!>)!!<(! [gg']/[aa']/[bb']/[aa']/!<)!!>(! [gg']/[aa']/[gg']/[=f=f']/!>)! | %114
 [ee']/[ff']/[ee']/[dd']/!<(! [cc']/[dd']/[ee']/!<)!!>(![ff']/!>)! [ee']/[Aa]/[Bb]/[cc']/!<(! [dd']/[ee']/[ff']/[gg']/!<)! | %115
 [aa']/[bb']/[aa']/[gg']/ [ff']/[gg']/[ff']/[ee']/ [dd']/[cc']/[dd']/[ee']/ [ff']/[gg']/[aa']/[ff']/ | %116
 [ee']/!8va(![e'e'']/[d'd'']/[c'c'']/ [bb']/[aa']/[gg']/[ff']/ [ee']/[=e=e']/[gg']/[ff']/ [_e_e']/[dd']/[cc']/[Bb]/!8va)! | %117
!f! [cc']/!<(![ee']/[=d=d']/[ee']/!<)!!>(! [ff']/[ee']/[cc']/[ee']/!>)!!>(! [Bb][Aa]!>)! [cc']/[_d_d']/[cc']/[Bb]/ | %118
!<(! [Aa]/[aa']/[gg']/[aa']/!<)!!>(! [bb']/[aa']/[gg']/[aa']/!>)!!8va(! [ff']/[a'a'']/[g'g'']/[a'a'']/ [b'b'']/[a'a'']/[g'g'']/[f'f'']/ | %119
 [e'e'']/[=d'=d'']/[_d'_d'']/[c'c'']/ [bb']/[aa']/[gg']/[ff']/!8va)! [ee']/[=e=e']/[gg']/[ff']/ [_e_e']/[dd']/[cc']/[Bb]/ | %120
!<(! [Aa]/[Bb]/[cc']/[dd']/ [ee']/[ff']/[gg']/[aa']/!<)! [gg']/[ff']/!>(![ee']/[dd']/ [cc']/[Bb]/[Aa]/[Gg]/!>)! | %121
!<(! [Acea]/[Bb]/[cc']/[dd']/ [ee']/[ff']/[gg']/[aa']/!<)! [gg']/[ff']/[ee']/[dd']/ [cc']/[Bb]/[Aa]/[Gg]/ | %122
 [Acea]/ [E,E]/[A,A]/[Cc]/ [Ee]/[Aa]/[cc']/[ee']/ [aa']/!<(![Ee]/[Aa]/[cc']/ [ee']/!8va(![aa']/[c'c'']/[e'e'']/!<)! | %123
 [a'a'']2!8va)!!f! [A,DA][B,DB]!<(! [CEc]/[Dd]/[=D=d]/[Ee]/ [=E=e]/[Ff]/[^F^f]/[Gg]/!<)! | %124
 [Aa]/[cc']/[dd']/[=d=d']/ [ee']/[=e=e']/[ff']/[gg']/ [aa']/!8va(![c'c'']/!<(![_d'd'']/[=d'=d'']/ [_e'e'']/[=e'=e'']/[f'f'']/[g'g'']/!<)! | %125
!ff! [a'a'']/[f'f'']/[_e'_e'']/[c'c'']/ [aa']/[ff']/[ee']/[cc']/!8va)! [Aa]/[Ff]/[Ee]/[Cc]/ A/F/E/C/ | %126
 x2 [ceac']2!ff! !fermata![A,A]4 |] %127
V:2
!ped! ([C,C]4 [B,,B,]!ped-up![A,,A,][C,C][B,,B,] |!ped! [A,,A,]6)!ped-up! z2 | %2
!ped! ([A,,A,]4 [G,,G,]!ped-up![F,,F,][A,,A,][G,,G,] |!ped! [F,,F,]6)!ped-up! z2 | %4
[K:Ab] [D,,D,]6!ped! z [C,,C,]!ped-up! |!ped! [_C,,_C,]6!ped! [D,,D,]2!ped-up! | %6
{/=C,,} (3=C,!<(!=B,,_B,, (3=A,,_A,,G,,!<)! (3F,,!>(!G,,A,, (3=A,,B,,!>)!=B,, | %7
 (3[C,,C,][=B,,,=B,,][_B,,,_B,,]!<(! (3[=A,,,=A,,][_A,,,_A,,][G,,,G,,] (3[F,,,F,,]!<)![G,,,G,,]!>(![A,,,A,,] (3[=A,,,=A,,][B,,,B,,]!>)![=B,,,=B,,] | %8
 !arpeggio![C,,C,]4 [_C,,_C,]2 [B,,,B,,]2 | %9
!ped! [E,,,E,,]4!ped-up!!ped!!ped-up![K:treble] f/G/B/d/ e/d/B/G/ |[K:Ab] z2 e'/d'/b/g/ z4 | %11
!ped! x8!ped-up!!ped!!ped-up!!ped!!ped-up!!ped! | %12
 x4!ped!!ped-up!!ped!!ped-up!!ped! x[K:bass] x x2!ped-up! |!ped! !arpeggio![E,,E,]8!ped-up! | %14
 E,8!ped-up!!ped! | %15
"^rit."!ped! z2!ped-up![K:treble]!ped! [FA]2!ped-up!!ped! [^F=A]2!ped-up!"^r.h."!ped-up!!ped! [GB]2 | %16
[K:bass]!ped! A,,(3(E,/A,/C/ E!ped-up!!ped![E,A,C])!ped-up!!ped! E,,(3E,/G,/D/ E!ped-up!!ped![E,G,D]!ped-up! | %17
!ped! A,,(3(E,/A,/C/ E!ped-up!!ped![E,A,C])!ped-up!!ped! D,(3F,/A,/D/ F!ped-up!!ped![F,A,D]!ped-up! | %18
!ped! A,,(3E,/A,/C/ E!ped-up!!ped![E,A,C]!ped-up!!ped! F,,[F,A,C]!ped-up!!ped! B,,[F,A,B,=D]!ped-up! | %19
!ped! [E,,E,]E,EE,"^rit." z[K:treble] [FA][^F=A]!ped-up!!ped![GB]!ped-up! | %20
[K:bass]"^a tempo."!ped! A,,(3(E,/A,/C/ E!ped-up!!ped![E,A,C])!ped-up!!ped! E,,(3E,/G,/D/ E!ped-up!!ped![E,G,D]!ped-up! | %21
!ped! A,,(3(E,/A,/C/ E!ped-up!!ped![E,A,C])!ped-up!!ped! D,(3F,/A,/D/ F!ped-up!!ped![F,A,D]!ped-up! | %22
!ped! E,,(3(E,/A,/C/ E!ped-up!!ped![E,A,C])!ped-up!!ped! [E,,,E,,](3(E,/G,/D/ E!ped-up!!ped![E,G,D])!ped-up! | %23
!ped! [A,,,A,,]E,[A,CE]E, A,,!ped-up!!ped!E,A,E,!ped-up! | %24
!ped! A,,(3(E,/A,/C/ E!ped-up!!ped![E,A,C])!ped-up!!ped! E,,(3E,/G,/D/ E!ped-up!!ped![E,G,D]!ped-up! | %25
!ped! A,,(3(E,/A,/C/ E!ped-up!!ped![E,A,C])!ped-up!!ped! D,(3F,/A,/D/ F!ped-up!!ped![F,A,D]!ped-up! | %26
!ped! A,,(3E,/A,/C/ E!ped-up!!ped![E,A,C]!ped-up!!ped! F,,[F,A,C]!ped-up!!ped! B,,[F,A,B,=D]!ped-up! | %27
!ped! [E,,E,]E,EE, z[K:treble]"^rit." [FA][^F=A]!ped-up!"^r.h."!ped![GB]!ped-up! | %28
[K:bass]!ped! A,,(3(E,/A,/C/ E!ped-up!!ped![E,A,C])!ped-up!!ped! E,,[E,G,D]!ped-up!!ped! A,,[_G,A,C]!ped-up! | %29
!ped! D,(3(F,/A,/D/ F!ped-up!!ped![F,A,D])!ped-up!!ped! [=D,,=D,](3F,/A,/=B,/ F!ped-up!!ped![F,A,B,]!ped-up! | %30
!ped! [E,,E,](3(E,/A,/C/ E!ped-up!!ped![E,A,C])!ped-up!!ped! [E,,,E,,](3(E,/G,/D/ E!ped-up!!ped![E,G,D])!ped-up! | %31
!ped! [C,,C,](E,[A,CE]E, A,,) z"^cresc." z2!ped-up! | %32
!ped! B,,(3(E,/B,/D/ E!ped-up!!ped!!>!F,)!ped-up!!ped! E,,!ped-up!(3(G,/B,/D/ E!ped-up!!ped!E,) | %33
!ped! A,,(3(E,/A,/C/ E!ped-up!!ped![E,A,C])!ped-up!!ped! A,,(3(E,/A,/C/ E!ped-up!!ped![E,A,C])!ped-up! | %34
!ped! D,,(3(F,/A,/D/ F!ped-up!!ped![F,A,D])!ped-up!!ped! D,(3(F,/A,/D/ F!ped-up!!ped![F,A,D])!ped-up! | %35
!ped! A,,E,[A,CE]E,"^rit."!ped! z!ped-up![K:treble] [FA][^F=A]"^r.h."!ped-up!!ped![GB]!ped-up! | %36
[K:bass]!ped! A,,(3(E,/A,/C/ E!ped-up!!ped![E,A,C])!ped-up!!ped! E,,[E,G,D]!ped-up!!ped! A,,[_G,A,C]!ped-up! | %37
!ped! D,(3(F,/A,/D/ F!ped-up!!ped![F,A,D])!ped-up!!ped! [=D,,=D,](3F,/A,/=B,/ F!ped-up!!ped![F,A,B,]!ped-up! | %38
!ped! [E,,E,](E,/4A,/4C/4E/4 F!ped-up!!ped!_F)!ped-up!!ped! [E,,E,](3(E,/[C,G,]/D/ E!ped-up!!ped![E,G,D])!ped-up! | %39
!ped! [A,,,A,,](E,[A,CE]E, A,,2) z | x!ped-up! z | %41
!ped! A,,E,[A,C]E, E,,!ped-up!!ped!E,!ped-up![G,D]!ped-up!!ped!E, | %42
 A,,!ped-up!!ped!E,[A,C]E, D,!ped-up!!ped!A,[DF]A, | %43
 A,,!ped-up!!ped!E,A,E,!ped! F,,!ped-up!!ped![A,CF]!ped-up!!ped! B,,!ped-up!!ped![A,B,=D]!ped-up! | %44
!ped! A,,!ped-up!E,[G,_D]E,"^rit."!ped! z!ped-up![K:treble] [FA][^F=A]"^r.h."!ped-up!!ped![GB] | %45
[K:bass]"^a tempo."!ped! A,,E,[A,C]E, E,,!ped-up!!ped!E,[G,D]!ped-up!!ped!E,!ped-up! | %46
 A,,!ped-up!!ped!E,[A,C]E, D,!ped-up!!ped!A,[DF]A, | %47
 E,,!ped-up!!ped!E, F,!ped-up!!ped!!>![C,_F,] E,,!ped-up!!ped!E, E!ped![E,G,D]!ped-up! | %48
!ped! [A,,,A,,]!ped-up! E,[A,C]E, A,,E,A,E, | %49
!ped! [A,,,A,,] E,[A,C]E, E,,!ped-up!!ped!E,[G,D]!ped-up!!ped!E,!ped-up! | %50
 A,,!ped-up!!ped![A,,E,][A,C]E, D,!ped-up!!ped![E,A,][DF]A, | %51
 A,,!ped-up!!ped!E,A,E,!ped! F,,!ped-up!!ped![A,CF]!ped-up!!ped! B,,!ped-up!!ped![A,B,=D]!ped-up! | %52
!ped! E,,!ped-up!E,[G,_D]E,!ped! z!ped-up![K:treble] [FA][^F=A]!ped-up!!ped![GB] | %53
[K:bass]!ped! A,,E,[A,C]E,!ped! F,,!ped-up!!ped![E,G,D]!ped-up!"^cresc."!ped! B,,!ped-up!!ped![_G,A,C]!ped-up! | %54
 D,!ped-up!!ped!A,[DF]A, =D,!ped-up!!ped!A,[=B,F]A, | %55
 E,,!ped-up!!ped!E,F,!ped-up!!ped!!>!_F, E,,!ped-up!!ped!E, E!ped![E,G,D]!ped-up! | %56
!ped! [A,,,A,,]!ped-up!E,[A,C]E, A,, x!ped-up!!ped! x2 | %57
!ped! B,,!ped-up!E,E!ped!!>!E,!ped-up!!ped! z!ped-up! E,,[G,D]!ped-up!!ped!E, | %58
 A,,!ped-up!!ped!E,[A,C]E, A,,!ped-up!!ped!E,[A,C]E, | %59
 D,,!ped-up!!ped!A,[F,D]A, D,!ped-up!!ped!A,[F,D]A, | %60
!ped! A,,E,[A,C]E,"^rit."!ped! z!ped-up![K:treble] [FA][^F=A][GB]!ped-up! | %61
[K:bass]"^a tempo."!ped! A,,E,[A,C]E,!ped! E,,!ped-up!!ped![E,G,D]!ped-up!"^cresc."!ped! A,,!ped-up!!ped![_G,A,C]!ped-up! | %62
 D,!ped-up!!ped!A,[DF]A, =D,!ped-up!!ped!A,[=B,F]A, | %63
 E,,!ped-up!!ped!E, F,!ped-up!!ped!!>![C,_F,] E,,!ped-up!!ped!E, E!ped![E,G,D]!ped-up! | %64
 A,,,!ped-up!!ped!E,[A,C]E, [A,,,A,,] || z z2 | %66
!ped! [F,,,F,,]2 [A,CF]2 C,,2!ped!!ped-up!!ped!!ped-up! [B,C=E]2!ped-up!!ped!!ped-up!!ped! | %67
 F,,2!ped-up!!ped! [A,CF]2 B,,,2!ped-up!!ped!!ped-up!!ped! [B,DF]2!ped-up!!ped!!ped-up!!ped! | %68
 F,,,2!ped-up!!ped! [A,CF]2 F,,2!ped-up!!ped!!ped-up!!ped! [F,A,C]2!ped-up!!ped!!ped-up!!ped! | %69
 [C,,,C,,]2!ped-up!!ped! [=E,B,C]2 C,,!ped-up!!ped! [B,C]!ped-up!!ped! [A,C]!ped-up!!ped![G,C]!ped-up!!ped! | %70
 [F,,,F,,]2!ped-up!!ped! [A,CF]2 C,,2!ped-up!!ped!!ped-up!!ped! [B,C=E]2!ped-up!!ped! | %71
 F,,2!ped! [A,CF]2 B,,,2!ped-up!!ped!!ped-up!!ped! [B,DF]2!ped-up!!ped!!ped-up!!ped! | %72
 C,,2!ped-up!!ped!!ped-up!!ped! [A,C]!ped-up!!ped! [D,,,D,,]!ped-up!!ped! [C,,,C,,]2!ped-up!!ped! [B,C=E]2!ped-up!!ped! | %73
 [F,,,F,,]2!ped-up!!ped! [F,A,C]2!ped-up!!ped! [F,,,F,,]/ G,/A,/B,/ C/=D/=E/F/ | %74
!ped! [G,,,G,,]2 [G,B,C=E]2!ped-up!!ped! [C,,,C,,]2!ped-up!!ped! [G,B,CE]2!ped-up!!ped!!ped-up!!ped! | %75
 [F,,,F,,]2!ped-up!!ped! [F,A,DF]2!ped-up!!ped! [F,,,F,,]2!ped-up!!ped! [F,A,CF] [=A,,,=A,,]!ped-up!!ped! | %76
 [B,,,B,,]2!ped-up!!ped! [F,B,DF]2!ped-up!!ped! [D,,D,]2!ped-up!!ped! [F,B,E]!ped-up!!ped! [B,,,B,,]!ped-up!!ped! | %77
 [C,,C,]2!ped-up!!ped! [G,C]!ped-up!!ped![F,C]!ped-up!!ped! [=E,C]!ped-up!!ped![B,C]!ped-up!!ped![A,C]!ped-up!!ped![G,C]!ped-up!!ped! | %78
 [F,,,F,,]2!ped-up!!ped! [A,CF]2 [C,,C,]2!ped-up!!ped!!ped-up!!ped! [B,C=E]2!ped-up!!ped!!ped-up!!ped! | %79
 [D,,D,]2!ped-up!!ped! [F,A,DF]2 [B,,,B,,]2!ped-up!!ped!!ped-up!!ped! [F,B,DF]2!ped-up!!ped!!ped-up!!ped! | %80
 [C,,C,]2!ped-up!!ped!!ped-up!!ped! [A,C]!ped-up!!ped! [D,,,D,,]!ped-up!!ped! [C,,,C,,]2!ped-up!!ped! [B,C=E]2!ped-up!!ped! | %81
 [F,,,F,,]2!ped-up!!ped! [F,A,C]2!ped! [G,,,G,,]4!ped-up! | %82
!<(! G,,/4B,,/4D,/4E,/4[I:staff -1]G,/4B,/4D/4E/4[I:staff +1] G,/4C/4D/4E/4[I:staff -1]G/4B/4d/4e/4[I:staff +1][K:treble] G/4B/4d/4e/4[I:staff -1]g/4b/4d'/4e'/4[I:staff +1] g/4b/4c'/4e'/4!8va(![I:staff -1]g'/4b'/4d''/4e''/4!<)!!8va)! | %83
[I:staff +1] x8!ped!!ped-up!!ped!!ped-up!!ped!!ped-up! | %84
 x4!ped!!ped-up!!ped!!ped-up!!ped! x[K:bass] x x2!ped-up! |!ped! !arpeggio![E,,E,]8!ped-up! | %86
 E,8!ped-up!!ped! | %87
"^rit."!ped! z2!ped-up![K:treble]!ped! [FA]2!ped-up!!ped! [^F=A]2!ped-up!!ped! [GB]2 |: %88
[K:bass]!ped! [A,,,A,,]2 [E,A,CE]2!ped-up!!ped! [C,,C,]2 [_G,A,CE]2!ped-up! | %89
!ped! [D,,D,]2 [F,A,DF]2!ped-up!!ped! [D,,D,]2 [F,A,DF]2!ped-up! | %90
!ped! [A,,,A,,]2 [E,A,CE]2!ped-up!!ped! [B,,,B,,]2 [F,A,B,D]2!ped-up! | %91
!ped! [E,,,E,,]2 [E,G,_DE]2!ped-up!!ped!"^rit." z[K:treble] [FA][^F=A]!ped-up!!ped![GB]!ped-up! | %92
[K:bass]!ped! [A,,,A,,]2 [E,A,CE]2!ped-up!!ped! [C,,C,]2 [_G,A,CE]2!ped-up! | %93
!ped! [D,,D,]2 [F,A,DF]2!ped-up!!ped! [D,,D,]2 [F,A,DF]2!ped-up! | %94
!ped! [E,,E,]2 [E,A,CE]2!ped-up!!ped! [E,,,E,,]2 [E,G,DE]2!ped-up! |1 %95
!ped! [A,,,A,,]2 [E,A,CE]2 B,,[B,,E,]A,E,!ped-up! :|2 %96
!ped! [A,,,A,,] E,[C,A,]E [CA] C E!ped! A!ped-up! || %97
!ped! [B,,,B,,]2 [E,G,DE]2!ped-up!!ped! [E,,,E,,]2!ped-up! [E,G,DE]2 | %98
!ped! [A,,,A,,]2 [E,A,CE]2!ped-up!!ped! [A,,,A,,]2 [_G,A,CE]2!ped-up! | %99
!ped! [D,,,D,,]2 [F,A,DF]2!ped-up!!ped! [D,,D,]2 [F,A,DF]2!ped-up! | %100
!ped! [A,,,A,,]2 [E,A,CE]2"^rit." z!ped-up![K:treble] [FA][^F=A]!ped![GB]!ped-up! | %101
[K:bass]!ped! [A,,,A,,]2 [E,A,CE]2!ped-up!!ped! [C,,C,]2 [_G,A,CE]2!ped-up! | %102
!ped! [D,,D,]2 [F,A,DF]2!ped-up!!ped! [D,,D,]2 [F,A,DF]2!ped-up! | %103
!ped! [E,,E,]2 [E,A,CE]2!ped-up!!ped! [E,,,E,,]2 [E,G,DE]2!ped-up! | %104
!ped! [A,,,A,,]2 [E,A,CE]2 [A,,,A,,]2 z2!ped-up! || %105
!ped! A,,[E,A,C]!ped-up!!ped! E,,[E,A,C]!ped-up!!ped! A,,[E,A,C]!ped-up!!ped! A,,!ped-up![_G,A,C] | %106
!ped! D,[F,A,D]!ped-up!!ped! A,,[F,A,D]!ped-up!!ped! D, [A,DF]2 [A,DF]!ped-up! | %107
!ped! A,,[E,A,C]!ped-up!!ped! E,,[E,A,C]!ped-up!!ped! A,,[E,A,C]!ped-up!!ped! C,[E,A,C]!ped-up! | %108
!ped! E,, [E,G,D]2 [E,,E,] [E,,,E,,]/[=D,,,=D,,]/[E,,,E,,]/[=E,,,=E,,]/ [F,,,F,,][G,,,G,,]!ped-up! | %109
!ped! [A,,,A,,][E,A,C]!ped-up!!ped! E,,[E,A,C]!ped-up!!ped! A,,[E,A,C]!ped-up!!ped! A,,[_G,B,C] | %110
!ped! D,[F,A,D]!ped-up!!ped! A,,[F,A,D]!ped-up!!ped! D,[A,DF]!ped-up!!ped! =D,[A,=B,F]!ped-up! | %111
!ped! E,[A,CE]!ped-up!!ped! E,,[A,CE]!ped-up!!ped! B,,[E,G,D]!ped-up!!ped! E,,[E,G,D]!ped-up! | %112
!ped! A,,[E,A,C] [E,,E,][C,,C,] [A,,,A,,] C!ped-up!E!ped!A!ped-up! | %113
!ped! B,,[E,G,D]!ped-up!!ped! E,,[E,G,D]!ped-up!!ped! B,,[E,G,D]!ped-up!!ped! E,,[E,G,D]!ped-up! | %114
!ped! A,,[E,A,C]!ped-up!!ped! E,,[E,A,C]!ped-up!!ped! A,, [E,A,C]2 [E,A,C]!ped-up! | %115
!ped! D,[A,B,DF]!ped-up!!ped! A,,[A,B,DF]!ped-up!!ped! D, [A,DF]2 [A,DF]!ped-up! | %116
!ped! A,,[A,CE]!ped-up!!ped! E,,[A,CE]!ped-up!!ped! B,,[E,G,D]!ped-up!!ped! E,,[E,G,D]!ped-up! | %117
!ped! A,,[E,A,C]!ped-up!!ped! E,,[E,A,C]!ped-up!!ped! A,,[E,A,C]!ped-up!!ped! A,,[_G,A,C]!ped-up! | %118
!ped! D,[F,A,D]!ped-up!!ped! A,,[F,A,D]!ped-up!!ped! D,[A,DF]!ped-up!!ped! =D,[A,=B,F]!ped-up! | %119
!ped! E,[A,CE]!ped-up!!ped! E,,[A,CE]!ped-up!!ped! B,,[E,G,D]!ped-up!!ped! E,,[E,G,D]!ped-up! | %120
!ped! A,,[E,A,C]!ped-up!!ped! E,,[E,A,C]!ped-up!!ped! B,,[E,G,D]!ped-up!!ped! E,,[E,G,D]!ped-up! | %121
 [A,,C,E,A,]/[B,,B,]/[C,C]/[D,D]/ [E,E]/[F,F]/[G,G]/[A,A]/ [G,G]/[F,F]/[E,E]/[D,D]/ [C,C]/[B,,B,]/[A,,A,]/[G,,G,]/ | %122
 [A,,C,E,A,]/!ped!E,,/A,,/C,/ E,/A,/C/E/ A/E,/A,/C/[K:treble] E/A/c/e/!ped-up! | %123
 a2[K:bass] [F,,D,F,][_F,,D,_F,]!ped-up!!ped! [E,,C,E,]2!ped-up!!ped! [_E,,B,,D,G,]2 | %124
!ped! [A,,C,E,A,][CEA]!ped-up!!ped! E,[B,DG][K:treble]!ped-up!!ped! [A,A][EAc]!ped-up!!ped! E[Bdg]!ped-up! | %125
 [Acea]/"_1 on octaves ad lib:"f/!ped-up!e/c/!ped! A/F/E/C/[K:bass] A,/F,/E,/C,/ A,,/F,,/E,,/C,,/ | %126
!ped! [A,,,A,,]2 [A,EA]2!ped-up!!ped! [A,,,A,,]4!ped-up! |] %127
V:3
 x8 |x3/2A,,/4E,/4 x6 | x8 |x3/2F,,/4C,/4 x6 |[K:Ab]x3/2D,,/4A,,/4 x6 |x3/2_C,/4F,/4 x6 | x8 | x8 | %8
 x8 | x4[K:treble] x4 |[K:Ab] x2 e'2 x4 | x8 | x5[K:bass] x3 | z2 !>!B,2 !>!E2"^dim." !>!B,2 | %14
 z2 !>!B,2 !>!E2 !>!B,2 | E,,8[K:treble] |[K:bass] x8 | x8 | x8 | x4 E,,4[K:treble] |[K:bass] x8 | %21
 x8 | x8 | x4 A,,4 | x8 | x8 | x8 | x4 E,,4[K:treble] |[K:bass] x8 | x8 | x8 | x8 | x8 | x8 | x8 | %35
 x4 E,,4[K:treble] |[K:bass] x8 | x8 | x8 | x7 | x | A,,2 x2 E,,2 x2 | A,,2 x2 D,2 x2 | %43
 A,,2 x2 F,,2 B,,2 | A,,2 x2 E,,4[K:treble] |[K:bass] A,,2 x2 E,,2 x2 | A,,2 x2 D,2 x2 | %47
 E,,2 [A,D]2 E,,2 E2 | x4 A,,2 x2 | x4 E,,2 x2 | A,,2 x2 D,2 x2 | A,,2 x2 F,,2 B,,2 | %52
 E,,2 x2 E,,4[K:treble] |[K:bass] x4 F,,2 B,,2 | x8 | E,,2 [A,D]2 E,,2 E2 | A,,2 x6 | %57
 B,,2 x2 !>!G,3 x | A,,2 x2 A,,2 x2 | D,,2 x2 D,2 x2 | x4 E,,4[K:treble] | %61
[K:bass] A,,2 x2 E,,2 A,,2 | D,2 x2 =D,2 x2 | E,,2 [A,D]2 E,,2 x2 | [A,,,A,,]2 x3 || x3 | x8 | x8 | %68
 x8 | x8 | x8 | x8 | x8 | x8 | x8 | x8 | x8 | x8 | x8 | x8 | x8 | x8 | %82
 x4[K:treble] x3!8va(! x!8va)! | x8 | x5[K:bass] x3 | z2 !>!B,2 !>!E2 !>!B,2 | %86
 z2 !>!B,2 !>!E2 !>!B,2 | E,,8[K:treble] |:[K:bass] x8 | x8 | x8 | x4 E,,4[K:treble] |[K:bass] x8 | %93
 x8 | x8 |1 x8 :|2 x8 || x8 | x8 | x8 | x4 E,,4[K:treble] |[K:bass] x8 | x8 | x8 | x481/60 || x8 | %106
 x8 | x8 | x8 | x8 | x8 | x8 | x8 | x8 | x8 | x8 | x8 | x8 | x8 | x8 | x8 | x8 | x6[K:treble] x2 | %123
 x2[K:bass] x6 | x4[K:treble] x4 | x4[K:bass] x2 A,/F,/E,/C,/ | A,2 x6 |] %127
V:4
 x8 | x85/24!8va(! x47/32!8va)! x3 | x8 | x237/64!8va(! x21/16!8va)! x3 |[K:Ab] x8 | %5
 x13/4!8va(! x7/4!8va)! x[K:bass] x2 | %6
 (3z [=E,G,][E,G,] (3[E,G,][E,G,][E,G,] (3z [F,A,][F,A,] (3z [F,A,][F,A,] | %7
 (3z [=E,G,][E,G,] (3[E,G,][E,G,][E,G,] (3z [F,A,][F,A,] (3z [F,A,][F,A,] | %8
 (3!arpeggio![=E,G,][E,G,][E,G,] [E,G,]2 [F,A,]2 [F,A,]2 | !>![B,_DF]2 x6 | %10
[K:Ab][K:treble] f'2 x2 f'2 e'2 | x8 | x8 | x8 | x8 | x8 | x8 | x8 | x8 | x8 | x8 | x8 | x8 | %23
 x2!8va(! x2!8va)! x4 | x8 | x8 | x8 | x8 | x8 | x8 | x8 | x3!8va(! x2!8va)! x3 |!8va(! x8!8va)! | %33
 x8 | x8 | x8 | x8 | x8 | x8 | x3!8va(! x3!8va)! x | x | !>!c'3 !>!c' !>!b!>!a!>!c'!>!b | %42
 a2!8va(! x6!8va)! | x4 c'bab | x!8va(! x2!8va)! x5 | !>!c'3 !>!c' !>!b!>!a!>!c'!>!b | %46
 a2!8va(! x6!8va)! | x9/2!8va(! x3/2!8va)! x2 | x2!8va(! x2!8va)! x4 | %49
 !>!c'3 !>!c' !>!b!>!a!>!c'!>!b | a2!8va(! x6!8va)! | x4 !>!c'!>!b!>!a!>!b | x!8va(! x2!8va)! x5 | %53
 !>!c'3 !>!c' !>!b!>!a!>!c'!>!b | a2 x3!8va(! x2!8va)! x | x9/2!8va(! x3/2!8va)! x2 | %56
 x5/2!8va(! x5/2!8va)! x3 |!8va(! g'2 x a' b' b' e'2 | e'2 x f' e'2 a'2 | a'2 f'2 d'2 f'2 | %60
 x3!8va)! x5 | !>!c'3 !>!c' !>!b!>!a!>!c'!>!b | a2 x3!8va(! x2!8va)! x | x9/2!8va(! x3/2!8va)! x2 | %64
 x!8va(! x7/4!8va)! x9/4 || x3 | x8 | x8 | x8 | x8 | x8 | x8 | x8 | x8 | x8 | x8 | x8 | x8 | x8 | %79
 x8 | x8 | x8 | x8 |!8va(! x!8va)! x!8va(! x!8va)! x5 | x8 | x8 | x8 | x8 |: %88
 x!8va(! x5/2!8va)! x3/2!8va(! x5/2!8va)! x/ | x!8va(! x7!8va)! | %90
!8va(! x7/2!8va)! x3/2!8va(! x5/2!8va)! x/ | x!8va(! x2!8va)! x5 | %92
 x!8va(! x5/2!8va)! x3/2!8va(! x5/2!8va)! x/ | x!8va(! x13/2!8va)! x/ | %94
 x!8va(! x5/2!8va)! x3/2!8va(! x5/2!8va)! x/ |1 x2!8va(! x2!8va)! x4 :|2 x2!8va(! x3!8va)! x3 || %97
!8va(! x8 | x8 | x8 | x3!8va)! x5 | x!8va(! x5/2!8va)! x3/2!8va(! x5/2!8va)! x/ | %102
 x!8va(! x5/2!8va)! x3/2!8va(! x5/2!8va)! x/ | x!8va(! x5/2!8va)! x3/2!8va(! x5/2!8va)! x/ | %104
 x!8va(! x!8va)! x361/60 || x8 | x4!8va(! x4!8va)! |!8va(! x4!8va)! x4 | x4!8va(! x4!8va)! | x8 | %110
 x4!8va(! x4!8va)! |!8va(! x8 | x5!8va)! x3 | x8 | x8 | x8 | x/!8va(! x15/2!8va)! | x8 | %118
 x4!8va(! x4 | x4!8va)! x4 | x8 | x8 | x13/2!8va(! x3/2 | x2!8va)! x6 | x9/2!8va(! x7/2 | %125
 x4!8va)! x4 | x8 |] %127

